X:0
T:Tutor, The
M:4/4
C:© Paul Gitlitz 2009
R:strathspey
K:C
"Am"[A,2E2][A,E][CE] ECA,<C|"Em"B,2B,C "G"DB,G,<B,|"Am"[A,2E2][A,E][CE] ECA,<C|"Em"{B,C}B,G,{B,C}B,G, "Am"A,4|!
"Am"A,>CEC ECA,<C| "Em"B,CDE "G"DB,G,<B,|"Am"A,CB,<D "C"CED<F|"Em"EDC<B, "Am"A,4:|!
|:"C"cGcd e>cG<c|"G"BGBc d>BG<B|"C"cGcd e>cG<c|"G"B>GB<G "Am"A3B|!
"C"cBcd e>cG<c|"Em"BABc "Dm/F"d<efd|"Am"cABd "F"cABG|"Em"EGA<B "Am"A4:|]
